packages/foundations/assets/icons/functional/images/transportation/airplane_32.svg

<svg width="32" height="32" viewBox="0 0 32 32" fill="none" xmlns="http://www.w3.org/2000/svg">
<g clip-path="url(#clip0_187_812)">
<path fill-rule="evenodd" clip-rule="evenodd" d="M20.838 9.03679C24.3097 8.02779 28.5948 8.78421 29.7867 12.1775C30.569 14.4044 29.254 16.8708 26.9802 17.5655C25.2924 18.0981 23.6036 18.6292 21.9137 19.1589L17.867 26.5897C17.6604 26.9723 17.2979 27.3316 16.9516 27.4594C16.6052 27.5872 16.4662 27.6435 16.0385 27.7398C14.7433 28.0315 13.4651 27.1657 13.4651 25.7733C13.461 24.4545 13.4585 23.1357 13.4577 21.8169L10.5403 22.7326C8.07302 23.4611 5.55275 22.351 4.46305 19.7832C3.80313 17.9263 3.01412 15.6893 2.09601 13.0721C1.76858 12.1434 2.19859 11.129 3.07245 10.7072L3.21407 10.6456L3.9235 10.3719C4.7367 10.0575 5.65006 10.1688 6.35917 10.6604L6.50789 10.7716L8.98468 12.7579L20.838 9.03679ZM26.512 11.2545C25.2337 10.5849 23.0811 10.3719 21.1888 11.0206C17.1498 12.2879 13.1118 13.5566 9.07484 14.8266C8.7964 14.9141 8.42722 14.8876 8.14933 14.6526C7.18227 13.8799 6.21759 13.106 5.2553 12.3307C5.10899 12.213 4.91284 12.1482 4.64414 12.2375C4.4306 12.3173 4.21845 12.3988 4.00768 12.4819L6.34113 19.096C6.82264 20.3657 8.25074 21.2652 9.95804 20.8193C11.3594 20.383 12.759 19.9443 14.157 19.5033C14.7626 19.3135 15.4561 19.6878 15.4561 20.4559C15.4613 22.2273 15.4643 23.9987 15.4651 25.7701C15.4651 25.7882 15.4813 25.8156 15.517 25.809C15.6906 25.7614 15.88 25.7104 16.0853 25.6559L16.1089 25.6362L20.3509 17.8482C20.4541 17.6588 20.6969 17.4401 20.929 17.3727C22.7439 16.7988 24.5608 16.2272 26.3796 15.6578C27.5368 15.2932 28.1591 14.1893 27.9144 12.9047C27.0514 13.1807 26.1747 13.4631 25.2845 13.7519C24.7588 13.9212 24.1954 13.6323 24.0261 13.1066C23.8688 12.6185 24.111 12.0372 24.6713 11.8482C25.2834 11.6486 25.8969 11.4507 26.512 11.2545ZM12.6715 16.7633C12.9095 17.5023 12.5035 18.2953 11.7635 18.5343C11.0235 18.7723 10.2305 18.3663 9.99251 17.6253C9.75451 16.8863 10.1605 16.0933 10.9005 15.8553C11.6405 15.6173 12.4335 16.0233 12.6715 16.7633ZM17.0474 15.3541C17.2854 16.0931 16.8794 16.8861 16.1394 17.1251C15.3994 17.3631 14.6064 16.9571 14.3684 16.2161C14.1304 15.4771 14.5364 14.6841 15.2764 14.4461C16.0164 14.2081 16.8094 14.6141 17.0474 15.3541ZM21.4229 13.9439C21.6609 14.6839 21.2549 15.4769 20.5149 15.7149C19.7749 15.9539 18.9829 15.5469 18.7439 14.8069C18.5059 14.0669 18.9119 13.2739 19.6519 13.0359C20.3919 12.7979 21.1849 13.2049 21.4229 13.9439ZM13.0654 4.84153C13.9703 5.74116 14.8743 6.64149 15.7774 7.54253C16.1687 7.93226 16.17 8.56542 15.7803 8.95674C15.4205 9.31795 14.8021 9.38412 14.366 8.95961C13.456 8.0567 12.5479 7.15222 11.6418 6.24618C11.6208 6.22454 11.558 6.20356 11.5159 6.2147C11.3118 6.26883 11.1083 6.32527 10.9054 6.38402C10.8494 6.39969 10.8011 6.44475 10.8011 6.51182C11.2017 7.34152 11.607 8.17052 12.0171 8.99882C12.2597 9.49498 12.0541 10.0938 11.558 10.3364C11.0972 10.5617 10.4633 10.3719 10.2203 9.87732C9.806 9.03388 9.39369 8.18965 8.98341 7.34464C8.49768 6.21006 9.07484 4.82642 10.3685 4.45744C10.571 4.39967 10.7741 4.34334 10.9778 4.28846C11.6754 4.09215 12.4413 4.22109 13.0654 4.84153Z" fill="#1A1C1F"/>
</g>
<defs>
<clipPath id="clip0_187_812">
<rect width="32" height="32" fill="white"/>
</clipPath>
</defs>
</svg>

<svg xmlns="http://www.w3.org/2000/svg" width="32" height="32" fill="none"><g clip-path="url(#a)"><path fill="#1A1C1F" fill-rule="evenodd" d="M20.838 9.037c3.472-1.01 7.757-.253 8.949 3.14.782 2.227-.533 4.694-2.807 5.389q-2.531.798-5.066 1.593l-4.047 7.43c-.207.383-.57.743-.915.87-.347.128-.486.184-.914.28-1.295.293-2.573-.573-2.573-1.966a1581 1581 0 0 1-.007-3.956l-2.918.916c-2.467.728-4.987-.382-6.077-2.95q-.99-2.786-2.367-6.71a1.92 1.92 0 0 1 .976-2.366l.142-.061.71-.274a2.62 2.62 0 0 1 2.435.288l.149.112 2.477 1.986zm5.674 2.217c-1.278-.67-3.43-.882-5.323-.233q-6.06 1.9-12.114 3.806a.99.99 0 0 1-.926-.174 915 915 0 0 1-2.894-2.322c-.146-.118-.342-.183-.61-.093q-.322.119-.637.244l2.333 6.614c.482 1.27 1.91 2.17 3.617 1.723q2.102-.654 4.199-1.316c.606-.19 1.3.185 1.3.953q.006 2.657.008 5.314c0 .018.016.046.052.039q.26-.072.568-.153l.024-.02 4.242-7.788c.103-.19.346-.408.578-.475q2.723-.861 5.45-1.715c1.158-.365 1.78-1.469 1.535-2.753q-1.295.414-2.63.847a1 1 0 0 1-.613-1.904q.918-.3 1.841-.594m-13.84 5.51a1.408 1.408 0 1 1-2.681.861 1.408 1.408 0 0 1 2.68-.862m4.375-1.41a1.408 1.408 0 1 1-2.68.862 1.408 1.408 0 0 1 2.68-.862m4.376-1.41a1.407 1.407 0 1 1-2.679.863 1.407 1.407 0 0 1 2.679-.863m-8.358-9.102q1.358 1.35 2.712 2.7a1 1 0 1 1-1.411 1.418q-1.365-1.355-2.724-2.714a.16.16 0 0 0-.126-.031q-.307.08-.61.169c-.057.016-.105.06-.105.128q.6 1.245 1.216 2.487a1 1 0 0 1-.459 1.337c-.46.226-1.095.036-1.338-.459a616 616 0 0 1-1.237-2.532 2.13 2.13 0 0 1 1.385-2.888q.304-.086.61-.169c.697-.196 1.463-.067 2.087.554" clip-rule="evenodd"/></g><defs><clipPath id="a"><path fill="#fff" d="M0 0h32v32H0z"/></clipPath></defs></svg>
